svg/furkot/mapbox-maki/dentist.svg

<svg viewBox="0 0 512 512" xmlns="http://www.w3.org/2000/svg"><path d="m132.198 512c-39.225 0-21.965-104.729-33.734-196.121-3.922-29.812-39.224-58.446-43.93-80.803-14.906-76.096-38.832-215.735 50.206-232.994 89.039-17.259 91.786 78.449 152.191 78.449s61.582-92.57 151.015-78.449c89.432 14.121 62.367 152.976 50.599 231.425-3.922 17.65-43.147 58.051-46.284 80.801-12.945 94.14 12.552 196.123-31.38 196.123-36.478 0-51.777-106.69-78.449-176.51-10.591-32.556-25.104-57.267-45.501-57.267-60.405 0-70.212 235.346-124.733 235.346z"/></svg>

<svg viewBox="0 0 512 512" xmlns="http://www.w3.org/2000/svg"><path d="M 132.198 512 C 92.973 512 110.233 407.271 98.464 315.879 C 94.542 286.067 59.24 257.433 54.534 235.076 C 39.628 158.98 15.702 19.341 104.74 2.082 C 193.779 -15.177 196.526 80.531 256.931 80.531 C 317.336 80.531 318.513 -12.039 407.946 2.082 C 497.378 16.203 470.313 155.058 458.545 233.507 C 454.623 251.157 415.398 291.558 412.261 314.308 C 399.316 408.448 424.813 510.431 380.881 510.431 C 344.403 510.431 329.104 403.741 302.432 333.921 C 291.841 301.365 277.328 276.654 256.931 276.654 C 196.526 276.654 186.719 512 132.198 512 Z"/></svg>
